X:893
%%annotationfont Times-Roman
T:Looking For A Partner
C:Joe Buchanan's Scottish Tome - Page 452.0-453.0
I:452 0
Z:Carl Allison
R:Two-step
L:1/8
M:6/8
K:D
W:Intro
%%vskip 0
ddd dcB | A2 A AGF | EFG ABc | (d3 d2) :|
%%vskip 20
A, | F2F FED | A2A A2F | G2G GFE | B2B B2 d |
c2=c ^c2d | e2c B2A | d2c d2e | fed cBA |
F2F FED | A2A A2F | G2G GFE | B2B B2c |
ddd dcB | A2 A AGF | EFG ABc | (d3 d2) :|
e | f3 f3 | fed A3 | dcd e2d | c3 B3 |
g3 g3 | gfe B3 | c2d ^d2 e | f2e cBA |
f3 f3 | fed A3 | dcd e d | c3 B3 |
g2g gfe | d2d dcB | A3 c3 | dAB cde |
e | f3 f3 | fed A3 | dcd e2d | c3 B3 |
g3 g3 | gfe B3 | c2d ^d2 e | f2e cBA |
e | f3 f3 | fed A3 | dcd e2d | c3 B3 |
g2g gfe | d2d dcB | A3 c3 | (d3 d2) |]
%%newpage
